public/images/flags/SA.svg

<svg width="21" height="15" fill="none" xmlns="http://www.w3.org/2000/svg"><path d="M19 0H2a2 2 0 0 0-2 2v11a2 2 0 0 0 2 2h17a2 2 0 0 0 2-2V2a2 2 0 0 0-2-2z" fill="#24B47E"/><path d="M15 10h1l-.5 1H15v1l-1-.5V11H7.492L5 10h9v-.5l1-.5v1zM14 4l1.657.146L16 5v2h-1l-1.492-.528L13 7V4h1zm-3.283.375L12 4v3l-1.283-.488L9 7l.172-1.858L9 4l1.717.375zM7 4l1 1v2l-.764-.343L6 7l-.994-.006.183-2.917L7 4z" fill="#fff"/></svg>

<svg width="21" height="15" viewBox="0 0 21 15" fill="none" xmlns="http://www.w3.org/2000/svg">
<path d="M19 0H2C0.89543 0 0 0.89543 0 2V13C0 14.1046 0.89543 15 2 15H19C20.1046 15 21 14.1046 21 13V2C21 0.89543 20.1046 0 19 0Z" fill="#24B47E"/>
<path d="M15 10H16L15.5 11H15V12L14 11.5V11H7.492L5 10H14V9.5L15 9V10Z" fill="white"/>
<path d="M14 4L15.657 4.146L16 5V7H15L13.508 6.472L13 7V4H14ZM10.717 4.375L12 4V7L10.717 6.51199L9 7L9.172 5.142L9 4L10.717 4.375ZM7 4L8 5V7L7.236 6.657L6 7L5.006 6.994L5.189 4.077L7 4Z" fill="white"/>
</svg>
